img/hero-icons/1.svg

<svg width="28" height="28" viewBox="0 0 28 28" fill="none" xmlns="http://www.w3.org/2000/svg">
<rect width="28" height="28" rx="6" fill="#FF5730"/>
<mask id="mask0_258_1184" style="mask-type:alpha" maskUnits="userSpaceOnUse" x="4" y="4" width="20" height="20">
<rect x="4" y="4" width="20" height="20" fill="#D9D9D9"/>
</mask>
<g mask="url(#mask0_258_1184)">
<path d="M19.7917 22.3333C18.0556 22.3333 16.3404 21.9549 14.6459 21.1979C12.9515 20.441 11.4098 19.3681 10.0209 17.9792C8.63203 16.5903 7.55911 15.0486 6.80216 13.3542C6.04522 11.6597 5.66675 9.94445 5.66675 8.20834C5.66675 7.95834 5.75008 7.75001 5.91675 7.58334C6.08341 7.41667 6.29175 7.33334 6.54175 7.33334H9.91675C10.1112 7.33334 10.2848 7.39931 10.4376 7.53126C10.5904 7.6632 10.6806 7.81945 10.7084 8.00001L11.2501 10.9167C11.2779 11.1389 11.2709 11.3264 11.2292 11.4792C11.1876 11.6319 11.1112 11.7639 11.0001 11.875L8.97925 13.9167C9.25703 14.4306 9.58689 14.9271 9.96883 15.4063C10.3508 15.8854 10.7709 16.3472 11.2292 16.7917C11.6598 17.2222 12.1112 17.6215 12.5834 17.9896C13.0556 18.3576 13.5556 18.6944 14.0834 19L16.0417 17.0417C16.1667 16.9167 16.3299 16.8229 16.5313 16.7604C16.7327 16.6979 16.9306 16.6806 17.1251 16.7083L20.0001 17.2917C20.1945 17.3472 20.3542 17.4479 20.4792 17.5938C20.6042 17.7396 20.6667 17.9028 20.6667 18.0833V21.4583C20.6667 21.7083 20.5834 21.9167 20.4167 22.0833C20.2501 22.25 20.0417 22.3333 19.7917 22.3333ZM8.18758 12.3333L9.56258 10.9583L9.20841 9.00001H7.35425C7.42369 9.56945 7.52091 10.1319 7.64591 10.6875C7.77091 11.2431 7.95147 11.7917 8.18758 12.3333ZM15.6459 19.7917C16.1876 20.0278 16.7397 20.2153 17.3022 20.3542C17.8647 20.4931 18.4306 20.5833 19.0001 20.625V18.7917L17.0417 18.3958L15.6459 19.7917ZM14.8334 7.33334C14.5973 7.33334 14.3994 7.25348 14.2397 7.09376C14.0799 6.93403 14.0001 6.73612 14.0001 6.50001C14.0001 6.26389 14.0799 6.06598 14.2397 5.90626C14.3994 5.74653 14.5973 5.66667 14.8334 5.66667H21.5001C21.7362 5.66667 21.9341 5.74653 22.0938 5.90626C22.2536 6.06598 22.3334 6.26389 22.3334 6.50001C22.3334 6.73612 22.2536 6.93403 22.0938 7.09376C21.9341 7.25348 21.7362 7.33334 21.5001 7.33334H14.8334ZM14.8334 10.6667C14.5973 10.6667 14.3994 10.5868 14.2397 10.4271C14.0799 10.2674 14.0001 10.0694 14.0001 9.83334C14.0001 9.59723 14.0799 9.39931 14.2397 9.23959C14.3994 9.07987 14.5973 9.00001 14.8334 9.00001H21.5001C21.7362 9.00001 21.9341 9.07987 22.0938 9.23959C22.2536 9.39931 22.3334 9.59723 22.3334 9.83334C22.3334 10.0694 22.2536 10.2674 22.0938 10.4271C21.9341 10.5868 21.7362 10.6667 21.5001 10.6667H14.8334ZM14.8334 14C14.5973 14 14.3994 13.9201 14.2397 13.7604C14.0799 13.6007 14.0001 13.4028 14.0001 13.1667C14.0001 12.9306 14.0799 12.7326 14.2397 12.5729C14.3994 12.4132 14.5973 12.3333 14.8334 12.3333H21.5001C21.7362 12.3333 21.9341 12.4132 22.0938 12.5729C22.2536 12.7326 22.3334 12.9306 22.3334 13.1667C22.3334 13.4028 22.2536 13.6007 22.0938 13.7604C21.9341 13.9201 21.7362 14 21.5001 14H14.8334Z" fill="white"/>
</g>
</svg>

<svg version="1.2" xmlns="http://www.w3.org/2000/svg" viewBox="0 0 28 28" width="28" height="28">
	<title>1 (1)</title>
	<defs>
		<clipPath clipPathUnits="userSpaceOnUse" id="cp1">
			<path d="m4 4h20v20h-20z"/>
		</clipPath>
	</defs>
	<style>
		.s0 { fill: #6e7a8a } 
		.s1 { fill: #ffffff } 
	</style>
	<path fill-rule="evenodd" class="s0" d="m6 0h16c3.3 0 6 2.7 6 6v16c0 3.3-2.7 6-6 6h-16c-3.3 0-6-2.7-6-6v-16c0-3.3 2.7-6 6-6z"/>
	<g id="Clip-Path" clip-path="url(#cp1)">
		<g>
			<path class="s1" d="m19.8 22.3q-2.6 0-5.2-1.1-2.5-1.1-4.6-3.2-2.1-2.1-3.2-4.6-1.1-2.6-1.1-5.2 0-0.4 0.2-0.6 0.3-0.3 0.6-0.3h3.4q0.3 0 0.5 0.2 0.3 0.2 0.3 0.5l0.6 2.9q0 0.3-0.1 0.6 0 0.2-0.2 0.4l-2 2q0.4 0.8 1 1.5 0.5 0.7 1.2 1.4 0.7 0.6 1.4 1.2 0.7 0.5 1.5 1l1.9-2q0.2-0.1 0.5-0.2 0.3-0.1 0.6-0.1l2.9 0.6q0.3 0.1 0.5 0.3 0.2 0.2 0.2 0.5v3.4q0 0.3-0.3 0.6-0.2 0.2-0.6 0.2zm-11.6-10l1.4-1.3-0.4-2h-1.8q0.1 0.9 0.2 1.7 0.2 0.8 0.6 1.6zm7.4 7.5q0.9 0.3 1.7 0.6 0.8 0.2 1.7 0.2v-1.8l-2-0.4zm-0.8-12.5q-0.3 0-0.6-0.2-0.2-0.2-0.2-0.6 0-0.4 0.2-0.6 0.3-0.2 0.6-0.2h6.7q0.4 0 0.6 0.2 0.2 0.2 0.2 0.6 0 0.4-0.2 0.6-0.2 0.2-0.6 0.2zm0 3.4q-0.4 0-0.6-0.3-0.2-0.2-0.2-0.6 0-0.3 0.2-0.6 0.2-0.2 0.6-0.2h6.7q0.3 0 0.6 0.2 0.2 0.3 0.2 0.6 0 0.4-0.2 0.6-0.3 0.3-0.6 0.3zm0 3.3q-0.4 0-0.6-0.2-0.3-0.3-0.3-0.6 0-0.4 0.3-0.6 0.2-0.3 0.6-0.3h6.6q0.4 0 0.6 0.3 0.3 0.2 0.3 0.6 0 0.3-0.3 0.6-0.2 0.2-0.6 0.2z"/>
		</g>
	</g>
</svg>
